X: 9178
T:Grnbacher Polka Franz
B:"4. Spielheft fr Okarina", V. Derschmidt, Obersterreichisches Volksliedwerk, Linz 1995
Z:abc transcription Simon Wascher
N:please mail errors to: simon.wascher@chello.at
M:2/4
L:1/16
K:G
d2g2 B2g2|f2AB cBAB|c2a2 A2f2|g2Bc dcBc|
d2g2 B2g2|f2AB cBAB|c2a2 A2f2|g2g2g4:|
|:Bcde d2c2|c2B2 BAG2|ABcd c2c2|Bcde d2d2|
Bcde d2c2|c2B2 BAG2|ABcd e2f2|g2g2g4:|
K:C
|:G2e2 e2dc|c2B2 dcB2|G2f2 f2ed|d2c2 edc2|
G2e2 e2dc|c2B2 dcB2|G2Bd g2B2|c2c2c4:|
